assets/icon/mainHandSlot.svg

<svg viewBox="0 0 150 225" xmlns="http://www.w3.org/2000/svg"><path d="m75 202.66-11.8-11.77 4.53-4.51v-28.38h-18.63v-13.55h12.08v-109.57l13.82-14.76 13.82 14.78v109.59h12.08v13.51h-18.63v28.32l4.53 4.51zm-8.23-11.77 8.23 8.23 8.23-8.22-3.48-3.47v-31.94h18.63v-8.49h-12.08v-111.11l-11.3-12.26-11.3 12.26v111h-12.08v8.53h18.63v31.93z" fill="#f69200"/><g fill="none"><path d="m0 0h150"/><path d="m150 225h-150"/></g></svg>

<svg id="Layer_1" data-name="Layer 1" xmlns="http://www.w3.org/2000/svg" viewBox="0 0 150 225"><g id="Layer_2" data-name="Layer 2"><g id="Layer_1-2" data-name="Layer 1-2"><path d="M75,202.66,63.2,190.89l4.53-4.51V158H49.1V144.45H61.18V34.88L75,20.12,88.82,34.9V144.49H100.9V158H82.27v28.32l4.53,4.51Zm-8.23-11.77L75,199.12l8.23-8.22-3.48-3.47V155.49H98.38V147H86.3V35.89L75,23.63,63.7,35.89v111H51.62v8.53H70.25v31.93Z" fill="#f69200"/><line x2="150" fill="none"/><line x1="150" y1="225" y2="225" fill="none"/></g></g></svg>
